X: 3
T: Lady Anne Montgomery
R: reel
M: 4/4
L: 1/8
K: Dmaj
|:FADA FADA|FAdc BABc|dBAF E2 fe|dBAB d3A|
FADA FADA|FAdc BABc|dBAF E2 fe|dBAB d3e:||
|:f3a fede|fedB ABde|f3a fede|faaf e2de|
f3a fede|fedB ABde|f3a fedB|egfe d3B:||


Tune 59	Setting 28194

